X:1
T:Title
%%score { ( 1 3 ) | ( 2 4 ) }
L:1/8
M:9/8
K:F
V:1 treble nm="Grand Piano"
V:3 treble 
V:2 bass 
V:4 bass 
V:1
 z3 z3[Q:1/4=100] FGA | F3 C3 FGA | d3 c3 [Ac][GB][FA] | [EG]3 [GB]3 [FA]2 [EG] | A6 FGA | %5
 F3 C3 FGA | d3 c3 [Ac][GB][FA] | [EG]3 [GB]3 [FA]2 [EG] |[M:3/4] F6 |[M:3/8] FFF | %10
[M:9/8] [Fd]3 [Fd]3 z3 | [FA]3 [Ac]3 z3 | [Bd]3 [Ac]3 z3 | [CEG]6 FGA | F3 C3 FGA | %15
 d3 c3 [CAc][CGB][CFA] | [CEG]3 .[CDB]3 [CFA]2 [A,CG] |[M:3/4] [A,CF]6 |] %18
V:2
 z3 z3 [F,A,][F,B,F][F,CF] | [F,A,C]3 [F,A,]3 [F,A,C][F,B,C][F,CF] | %2
 [F,B,F]3 [F,A,F]3 [F,C][E,C][F,C] | [C,C]3 [C,C]3 [C,C]2 [C,C] | [F,CF]6 [F,A,][F,B,F][F,CF] | %5
 [F,A,C]3 [F,A,]3 [F,A,C][F,B,C][F,CF] | [F,B,F]3 [F,A,F]3 [F,C][E,C][F,C] | %7
 [C,C]3 [C,C]3 [C,C]2 [C,B,] |[M:3/4] [F,A,]6 |[M:3/8] z3 | %10
[M:9/8] [B,,B,]B,,B,, [B,,B,]2 B,,[K:treble] BAG | F,F,F, F,2 F,[K:treble] A_A=A | %12
 F,F,F, F,2 F, F,2 F, | C,6 [F,A,][F,B,F][F,CF] | [F,A,C]3 [F,A,]3 [F,A,C][F,B,C][F,CF] | %15
 [F,B,F]3 [F,A,F]3 E,D,E, | C,3 z2 E C,2 C, |[M:3/4] F,6 |] %18
V:3
 x9 | x9 | x9 | x9 | x9 | x9 | x9 | x9 |[M:3/4] x6 |[M:3/8] x3 |[M:9/8] z B,B, z2 B, dcB | %11
 CCC C2 C c=Bc | FFF F2 F [FAc]2 [CFA] | x9 | x9 | x9 | x9 |[M:3/4] x6 |] %18
V:4
 x9 | x9 | x9 | x9 | x9 | x9 | x9 | x9 |[M:3/4] x6 |[M:3/8] x3 |[M:9/8] x6[K:treble] x3 | %11
 x6[K:treble] x3 | x9 | x9 | x9 | x9 | z3 C,3 z3 |[M:3/4] x6 |] %18

